X: 1
T:Fuaire/as-sa cuireadh
M:12/8
L:1/8
Q:80
C:Traditonal
S:N\rin  N  Riain
R:Air/ballad
B:STR  AMHRN
K:F
|GGG GGG G AF  E2 C|! C2 F FFF FFF AGF|! G2 G G2 G GAF E2C|! C2 c AcA B
GE F3|! c
2 c BBB AGF E2 C|!C2 FFF FFF FAGF|! c2c B2B AGF E2C|! C2 c A cA  BGE  F3
||!
